Sources/FrostedUI/Resources/Icons.xcassets/lilstNumber20.imageset/lilst-number-20.svg

<svg width="20" height="20" viewBox="0 0 20 20" fill="none" xmlns="http://www.w3.org/2000/svg" data-fui-icon="true">
  <path
    d="M15.208 2.375C16.5427 2.375 17.625 3.45731 17.625 4.79199V15.208C17.625 16.5427 16.5427 17.625 15.208 17.625H4.79199C3.45731 17.625 2.375 16.5427 2.375 15.208V4.79199C2.375 3.4573 3.4573 2.375 4.79199 2.375H15.208ZM4.79199 3.875C4.28573 3.875 3.875 4.28573 3.875 4.79199V15.208C3.875 15.7143 4.28572 16.125 4.79199 16.125H15.208C15.7143 16.125 16.125 15.7143 16.125 15.208V4.79199C16.125 4.28572 15.7143 3.875 15.208 3.875H4.79199ZM6.80469 10.375C7.55701 10.3751 8.35537 10.9246 8.35547 11.8193C8.35547 12.2969 8.12509 12.6483 7.88281 12.8877C8.23359 12.9505 8.5 13.2562 8.5 13.625C8.5 14.0392 8.16421 14.375 7.75 14.375H5.875C5.48683 14.375 5.16753 14.0801 5.12891 13.7021L5.125 13.625C5.125 13.1097 5.43418 12.7685 5.66797 12.5752C5.89393 12.3884 6.1833 12.2324 6.37109 12.126C6.54721 12.0262 6.66927 11.9506 6.75586 11.8838C6.71931 11.893 6.67129 11.9106 6.61523 11.9434C6.57718 11.9656 6.54539 11.9873 6.52539 12.0029C6.5157 12.0105 6.51004 12.0166 6.50781 12.0186C6.50836 12.0181 6.50865 12.0167 6.50977 12.0156C6.20812 12.2954 5.7368 12.2804 5.4541 11.9805C5.17012 11.679 5.18401 11.204 5.48535 10.9199L5.71484 11.1631C5.50936 10.9449 5.48838 10.9223 5.48633 10.9199V10.9189H5.4873L5.48828 10.917C5.48935 10.916 5.49092 10.9152 5.49219 10.9141C5.4947 10.9117 5.4977 10.9092 5.50098 10.9062C5.50755 10.9003 5.51578 10.8931 5.52539 10.8848C5.54468 10.8681 5.57042 10.8466 5.60156 10.8223C5.66315 10.7741 5.74993 10.7113 5.85742 10.6484C6.06242 10.5286 6.39809 10.375 6.80469 10.375ZM14.125 11.625C14.5392 11.625 14.875 11.9608 14.875 12.375C14.875 12.7892 14.5392 13.125 14.125 13.125H9.875C9.46079 13.125 9.125 12.7892 9.125 12.375C9.125 11.9608 9.46079 11.625 9.875 11.625H14.125ZM6.69531 5.76074C6.92439 5.6005 7.2237 5.58085 7.47168 5.70996C7.71954 5.83917 7.875 6.09547 7.875 6.375V8.875C7.875 9.28921 7.53921 9.625 7.125 9.625C6.71079 9.625 6.375 9.28921 6.375 8.875V7.81445L6.30469 7.86426C5.96537 8.10162 5.49823 8.01896 5.26074 7.67969C5.02338 7.34037 5.10604 6.87323 5.44531 6.63574L6.69531 5.76074ZM14.125 6.875C14.5392 6.875 14.875 7.21079 14.875 7.625C14.875 8.03921 14.5392 8.375 14.125 8.375H9.875C9.46079 8.375 9.125 8.03921 9.125 7.625C9.125 7.21079 9.46079 6.875 9.875 6.875H14.125Z"
    fill="currentColor"
  />
</svg>

<svg xmlns="http://www.w3.org/2000/svg" width="20" height="20" fill="none" data-fui-icon="true" viewBox="0 0 20 20"><path fill="currentColor" d="M15.208 2.375a2.417 2.417 0 0 1 2.417 2.417v10.416a2.417 2.417 0 0 1-2.417 2.417H4.792a2.417 2.417 0 0 1-2.417-2.417V4.792a2.417 2.417 0 0 1 2.417-2.417zm-10.416 1.5a.917.917 0 0 0-.917.917v10.416c0 .506.41.917.917.917h10.416c.506 0 .917-.41.917-.917V4.792a.917.917 0 0 0-.917-.917zm2.013 6.5c.752 0 1.55.55 1.55 1.444 0 .478-.23.83-.472 1.069a.75.75 0 0 1-.133 1.487H5.875a.75.75 0 0 1-.746-.673l-.004-.077c0-.515.31-.857.543-1.05.226-.187.515-.343.703-.449.176-.1.298-.175.385-.242a.5.5 0 0 0-.14.06 1 1 0 0 0-.09.059l-.018.016q0 0 .002-.003a.75.75 0 0 1-1.025-1.096l.23.243-.229-.243v-.001h.001l.001-.002.004-.003.009-.008a2 2 0 0 1 .1-.084c.062-.048.149-.11.256-.174a1.9 1.9 0 0 1 .948-.273m7.32 1.25a.75.75 0 0 1 0 1.5h-4.25a.75.75 0 0 1 0-1.5zm-7.43-5.864a.75.75 0 0 1 1.18.614v2.5a.75.75 0 0 1-1.5 0v-1.06l-.07.05a.75.75 0 1 1-.86-1.23zm7.43 1.114a.75.75 0 0 1 0 1.5h-4.25a.75.75 0 0 1 0-1.5z"/></svg>
